material/.icons/material/pier-crane.svg

<svg xmlns="http://www.w3.org/2000/svg" viewBox="0 0 24 24"><path d="M20 20c-1.39 0-2.78-.47-4-1.33-2.44 1.71-5.56 1.71-8 0C6.78 19.53 5.39 20 4 20H2v2h2c1.37 0 2.74-.35 4-1 2.5 1.3 5.5 1.3 8 0 1.26.65 2.62 1 4 1h2v-2h-2m0-16V3a1 1 0 00-1-1H9V1H6v1H5v2h1v9H5v-2H3v2H2v2h1v4h1c.33 0 .67-.03 1-.08V15h5v3.65c.65.2 1.33.3 2 .3V15h1v-2h-1v-2h-2v2H9V4h8v4.62c-.47.17-.81.61-.81 1.14 0 .44.24.84.61 1.06V12h.62c.34 0 .61.28.61.62 0 .34-.27.62-.61.62-.22 0-.42-.12-.54-.31a.606.606 0 00-.83-.22c-.3.16-.4.54-.23.84.33.56.94.92 1.6.92 1.01 0 1.84-.83 1.84-1.85 0-.78-.5-1.48-1.23-1.74v-.06c.38-.22.62-.62.62-1.06 0-.46-.27-.85-.65-1.06V4h2M8 11.66l-1 1v-1.42l1-1v1.42m0-2.95l-1 1V8.29l1-1v1.42m-1-2V5.29l1-1v1.42l-1 1z"/></svg>

<?xml version="1.0" encoding="UTF-8"?><!DOCTYPE svg PUBLIC "-//W3C//DTD SVG 1.1//EN" "http://www.w3.org/Graphics/SVG/1.1/DTD/svg11.dtd"><svg xmlns="http://www.w3.org/2000/svg" xmlns:xlink="http://www.w3.org/1999/xlink" version="1.1" id="mdi-pier-crane" width="24" height="24" viewBox="0 0 24 24"><path d="M20,20C18.61,20 17.22,19.53 16,18.67C13.56,20.38 10.44,20.38 8,18.67C6.78,19.53 5.39,20 4,20H2V22H4C5.37,22 6.74,21.65 8,21C10.5,22.3 13.5,22.3 16,21C17.26,21.65 18.62,22 20,22H22V20H20M20,4V3A1,1 0 0,0 19,2H9V1H6V2H5V4H6V13H5V11H3V13H2V15H3V19H4C4.33,19 4.67,18.97 5,18.92V15H10V18.65C10.65,18.85 11.33,18.95 12,18.95V18.92L12,15H13V13H12V11H10V13H9V4H17V8.62C16.53,8.79 16.19,9.23 16.19,9.76C16.19,10.2 16.43,10.6 16.8,10.82V12H17.42C17.76,12 18.03,12.28 18.03,12.62C18.03,12.96 17.76,13.24 17.42,13.24C17.2,13.24 17,13.12 16.88,12.93C16.71,12.64 16.34,12.54 16.05,12.71C15.75,12.87 15.65,13.25 15.82,13.55C16.15,14.11 16.76,14.47 17.42,14.47C18.43,14.47 19.26,13.64 19.26,12.62C19.26,11.84 18.76,11.14 18.03,10.88V10.82C18.41,10.6 18.65,10.2 18.65,9.76C18.65,9.3 18.38,8.91 18,8.7V4H20M8,11.66L7,12.66V11.24L8,10.24V11.66M8,8.71L7,9.71V8.29L8,7.29V8.71M7,6.71V5.29L8,4.29V5.71L7,6.71Z" /></svg>
